(

"20211018_0_SetUp.scd".loadPaths;
"20211018_1_Synth_part1.scd".loadPaths;
"20211018_2_Task_part1.scd".loadPaths;
"20211018_1_Synth_part2.scd".loadPaths;
"20211018_2_Task_part2.scd".loadPaths;


~p1.play;
~p2.play;
)

